src/view/frontend/web/svg/heroicons/solid/clipboard-check.svg

<svg viewBox="0 0 20 20" fill="currentColor" xmlns="http://www.w3.org/2000/svg">
<path d="M9 2C8.44772 2 8 2.44772 8 3C8 3.55228 8.44772 4 9 4H11C11.5523 4 12 3.55228 12 3C12 2.44772 11.5523 2 11 2H9Z" />
<path fill-rule="evenodd" clip-rule="evenodd" d="M4 5C4 3.89543 4.89543 3 6 3C6 4.65685 7.34315 6 9 6H11C12.6569 6 14 4.65685 14 3C15.1046 3 16 3.89543 16 5V16C16 17.1046 15.1046 18 14 18H6C4.89543 18 4 17.1046 4 16V5ZM13.7071 10.7071C14.0976 10.3166 14.0976 9.68342 13.7071 9.29289C13.3166 8.90237 12.6834 8.90237 12.2929 9.29289L9 12.5858L7.70711 11.2929C7.31658 10.9024 6.68342 10.9024 6.29289 11.2929C5.90237 11.6834 5.90237 12.3166 6.29289 12.7071L8.29289 14.7071C8.68342 15.0976 9.31658 15.0976 9.70711 14.7071L13.7071 10.7071Z" />
</svg>

<svg xmlns="http://www.w3.org/2000/svg" viewBox="0 0 20 20" fill="currentColor">
  <path d="M9 2a1 1 0 000 2h2a1 1 0 100-2H9z"/>
  <path fill-rule="evenodd" d="M4 5a2 2 0 012-2 3 3 0 003 3h2a3 3 0 003-3 2 2 0 012 2v11a2 2 0 01-2 2H6a2 2 0 01-2-2V5zm9.707 5.707a1 1 0 00-1.414-1.414L9 12.586l-1.293-1.293a1 1 0 00-1.414 1.414l2 2a1 1 0 001.414 0l4-4z" clip-rule="evenodd"/>
</svg>
